flags/bq-bo.svg

<svg width="512" height="512" viewBox="0 0 512 512" fill="none" xmlns="http://www.w3.org/2000/svg">
<path d="M512 0V512H0.00030365L0.015625 0H512Z" fill="var(--flag-palette-blue, #0052b4)"/>
<path d="M0 512L-4.47605e-05 4.47605e-05L512 0L0 512Z" fill="var(--flag-palette-white, #eeeeee)"/>
<path d="M0 0V276L276 0H0Z" fill="var(--flag-palette-yellow, #ffda44)"/>
<path fill-rule="evenodd" clip-rule="evenodd" d="M287 197.005L266.909 207.908L267 207.999C264.678 222.83 257.704 236.54 247.084 247.155C236.464 257.769 222.747 264.739 207.909 267.06L197 287.05L186.091 266.97C171.253 264.648 157.536 257.678 146.916 247.064C136.296 236.449 129.322 222.739 127 207.908L107 197.005L127 186.101C129.322 171.271 136.296 157.56 146.916 146.946C157.536 136.332 171.253 129.361 186.091 127.04L197 107.05L207.909 127.04C222.747 129.361 236.464 136.332 247.084 146.946C257.704 157.56 264.678 171.271 267 186.101L287 197.005ZM197 257.05C181.087 257.05 165.826 250.729 154.574 239.477C143.321 228.225 137 212.963 137 197.05C137 181.137 143.321 165.876 154.574 154.624C165.826 143.372 181.087 137.05 197 137.05C212.913 137.05 228.174 143.372 239.426 154.624C250.679 165.876 257 181.137 257 197.05C257 212.963 250.679 228.225 239.426 239.477C228.174 250.729 212.913 257.05 197 257.05Z" fill="var(--flag-palette-black, #333333)"/>
<path d="M196.9 163.6L206.6 180.3H225.9L216.3 197L225.9 213.7H206.6L197 230.4L187.3 213.7H168.1L177.7 197L168.1 180.3H187.3L196.9 163.6Z" fill="var(--flag-palette-bright-red, #d80027)"/>
</svg>

<svg xmlns="http://www.w3.org/2000/svg" width="512" height="512" fill="none"><path fill="var(--flag-palette-blue, #0052b4)" d="M512 0v512H0V0z"/><path fill="var(--flag-palette-white, #eeeeee)" d="M0 512V0h512z"/><path fill="var(--flag-palette-yellow, #ffda44)" d="M0 0v276L276 0z"/><path fill="var(--flag-palette-black, #333333)" fill-rule="evenodd" d="m287 197-20 11a71 71 0 0 1-59 59l-11 20-11-20a71 71 0 0 1-59-59l-20-11 20-10.9a71 71 0 0 1 59-59l11-20 11 20a71 71 0 0 1 59 59zm-90 60a60 60 0 1 1 0-120 60 60 0 0 1 0 120" clip-rule="evenodd"/><path fill="var(--flag-palette-bright-red, #d80027)" d="m196.9 163.6 9.7 16.7h19.3l-9.6 16.7 9.6 16.7h-19.3l-9.6 16.7-9.7-16.7h-19.2l9.6-16.7-9.6-16.7h19.2z"/></svg>
